X:1
T:Title
%%score { ( 1 3 ) | ( 2 4 ) }
L:1/8
M:4/4
K:A
V:1 treble nm="Grand Piano"
V:3 treble 
V:2 bass 
V:4 bass 
V:1
 z4 z2[Q:1/4=100] [CE]2 | [CE]2 [Ec]2 [Ec]2 [DB][Ec] | [DB]2 [CA]2 [CA]3 [EG] | %3
 [DF]2 [DB]2 [^DB]3 [DA] |[M:7/8] [EG]2 [^DF]2 E3 |[M:1/4] E2 |[M:4/4] [CE]2 [Ec]2 [Ec]2 [DB][Ec] | %7
[M:9/8] [Fe]2 [Fd]- [Fd] [Fd]2- [Fd] [FB]2 |[M:4/4] AAGA c2 B2 |[M:5/8] [A,CA]-[A,CA]- [A,CA]3 | %10
[M:3/8] z3 |[M:4/4] c6 z2 | B2 A2- AE E>E | d6 z2 |[M:5/8] [EAc]2 [EGB]3 |[M:3/8] Bc>d | %16
[M:4/4] e6 z2 | [Fe]2 [Fd]4 [^EB]2 | A2 A2 G2 B2 |[M:3/4] [CEA]6 |] %20
V:2
 z4 z2 [A,,A,]2 | [A,,A,]2 [A,,A,]2 [A,,A,]2 [A,,E,]2 | [A,,E,]2 [A,,E,]2 [A,,E,]3 [C,A,] | %3
 [D,A,]2 [D,F,]2 [B,,F,]3 [B,,B,] |[M:7/8] [B,,B,]2 [B,,A,]2 [E,G,]3 |[M:1/4] [E,G,D]2 | %6
[M:4/4] [A,,A,]2 [A,,A,]2 [A,,A,]2 [A,,A,]2 | %7
[M:9/8] [D,A,]2 [D,A,]- [D,A,] [D,A,]2- [D,A,] [D,D]2 | %8
[M:4/4] [E,CE][E,CE][E,B,E][E,CE] [E,A,E]2 [E,G,D]2 |[M:5/8] A,,-A,,- A,,3 |[M:3/8] EE>E | %11
[M:4/4] E6 z2 | [E,G,D]2 [A,C]4 z2 | B6[K:bass] z2 |[M:5/8] E,2 E,3 |[M:3/8] G,A,>B, | %16
[M:4/4] C6 z2 | [D,A,]2 [D,A,]4 [D,D]2 | [E,CE]2 [E,CE]2 [E,B,E]2 [E,D]2 |[M:3/4] A,,6 |] %20
V:3
 x8 | x8 | x8 | x8 |[M:7/8] x7 |[M:1/4] x2 |[M:4/4] x8 |[M:9/8] x9 |[M:4/4] x8 |[M:5/8] x5 | %10
[M:3/8] x3 |[M:4/4] z A, A,>A, A,2 B2 | x8 | z E E>E E2 [EAc]2 |[M:5/8] x5 |[M:3/8] x3 | %16
[M:4/4] z =G G>G G2 c2 | x8 | x8 |[M:3/4] x6 |] %20
V:4
 x8 | x8 | x8 | x8 |[M:7/8] x7 |[M:1/4] x2 |[M:4/4] x8 |[M:9/8] x9 |[M:4/4] x8 |[M:5/8] x5 | %10
[M:3/8] x3 |[M:4/4] z A,, A,,>A,, A,,2 [E,G,D]2 | x8 | z G, G,>G, G,2[K:bass] A,2 |[M:5/8] x5 | %15
[M:3/8] x3 |[M:4/4] z A, A,>A, A,2 [A,=G]2 | x8 | x8 |[M:3/4] x6 |] %20

